X:47
T:Fair Donegal* (waltz)
B:NFID.094 (as "Mazurka")
047fair_don
S:JD
L:1/8
M:3/4
R:waltz
Q:240
K:A
EA cd ce|Ac ea ce|df B2 Ba|gf fe e2|
EA cd ce|Ac ea ce|df Bc BA|GB A2 AE|
%B
AB cd cE|Ac ea ec|df B2 ba|gf fe e2|
EA cd cE|Ac ea ec|df Bc BA|BG A2 AE||
%C 10m
Ac e2 ec|(3efg a2 ab|(3agf e2 ea|(3gfe d2 dg|(3fed c2 cB|\
Ac e2 ec|(3efg a2 ab|(3agf e2 ea|(3gfe d2 cB|cd e2 B2||
%D 4m
e^d eB ge|fa fB ^df|e^d eB ge|fa fB ^df|[M:2/4] ef de|
%E
[M:6/8]|: cdB AeA|cdB AeA|BcB =GdG|BdB =GdG|
cdB AeA|cdB AeA|[M:3/4] GA Bc (3dBG|1 HA2 A2 ed:|2 A3A3||

%%%

